!!!OTL: 100e. Brennenberger.
!!!ARE: Europa, Mitteleuropa, Deutschland
!!!SCT: E0100B
!!!TXL: @@DE
!!!YEM: Copyright 1995, estate of Helmut Schaffrath.
**kern	**text
*ICvox	*
*M6/8	*
*k[b-e-]	*
*g:	*
{8dd	Sie
=1	=1
4b-/	leg-
8a	-ten
4g	ihn
8f	auf
=2	=2
4g	ei-
8a	-nen
4b-}	Tiſch
{8dd	ʒer-
=3	=3
4b-/	-ſchnit-
8a	-ten
4g	ihn
8f	wie
=4	=4
4g	ei-
8a	-nen
4b-}	Fiſch,
{16b-L	Sie
16ccJ	.
=5	=5
[8dd	nah-
8dd]	-men
8dd	ihm
8ddL	aus
8ee-J	.
8dd	ſein
=6	=6
4.dd	Her-
4cc}	-ʒe,
{16aL	daß
16b-J	.
=7	=7
4cc	litt
8cc	er
8ccL	gro-
8ddJ	.
8cc	-ße
=8	=8
4.cc	Schmerʒen,
4b-}	.
{16b-L	ja,
16aJ	.
=9	=9
4g;	ja!
16ddL	viel
16ccJ	.
(8.b-/L	Schmer-
16cc	.
16a	.
16b-J)	.
=10	=10
4g	-ʒen.
8r	.
4r}	.
==	==
!!!AGN: erzaehlendes Volks - Lied, Sage, Liebe, Leid, Tod, Ballade ?
!!!ONB: ESAC (Essen Associative Code) Database: ERK1
!!!AMT: compound duple
!!!AIN: vox
!!!EED: Helmut Schaffrath
!!!EEV: 1.0
!!!GTL: Liebesgeschichten mit tragischem Schluss
!!!URL-scan: https://rosdok.uni-rostock.de/mcrviewer/recordIdentifier/rosdok_ppn745146120/iview2/phys_0423.iview2?x=-422.27491384562836&y=133.27035571611486&scale=0.554360769283424&rotation=0&layout=singlePageLayout
!!!ENC: Anna Maria Matuszewska
!!!EEV: 2024/11/29
*-	*-
